res/skins/LateNight/buttons/btn_loop_out_overdown.svg

<?xml version="1.0" encoding="UTF-8"?>
<!-- Created with Inkscape (http://www.inkscape.org/) -->
<svg id="svg25537" width="26" height="26" version="1.1" xmlns="http://www.w3.org/2000/svg" xmlns:cc="http://creativecommons.org/ns#" xmlns:dc="http://purl.org/dc/elements/1.1/" xmlns:rdf="http://www.w3.org/1999/02/22-rdf-syntax-ns#" xmlns:xlink="http://www.w3.org/1999/xlink">
 <defs id="defs25539">
  <linearGradient id="linearGradient6840" x1="15" x2="15" y1="1049.4" y2="1027.4" gradientTransform="translate(0 -1026.4)" gradientUnits="userSpaceOnUse">
   <stop id="stop3803-7-1-9-39" stop-color="#aa1112" offset="0"/>
   <stop id="stop4329-4-4" stop-color="#b60607" offset=".28"/>
   <stop id="stop3805-5-28-5-8" stop-color="#760607" offset="1"/>
  </linearGradient>
 </defs>
 <metadata id="metadata25542">
  <rdf:RDF>
   <cc:Work rdf:about="">
    <dc:format>image/svg+xml</dc:format>
    <dc:type rdf:resource="http://purl.org/dc/dcmitype/StillImage"/>
    <dc:title/>
   </cc:Work>
  </rdf:RDF>
 </metadata>
 <rect id="rect3029-96-4" x=".5" y=".49998" width="23" height="23" rx="1.5" ry="1.5" color="#000000" fill="url(#linearGradient6840)"/>
 <path id="path9817-6-7" d="m16 7h-5v13h1v-7h4v-6" fill="#320202"/>
 <path id="path9817-6" d="m15 6h-5v13h1v-7h4v-6" fill="#8d8f90"/>
 <path id="rect3029-96-9" d="m2 0c-1.0994 0-2 0.9006-2 2v20c0 1.0994 0.90065 2 2 2h20c1.0994 0 2-0.9006 2-2v-20c0-1.0994-0.90065-2-2-2zm0.3 1h19.4c0.56265 0 1.3 0.7374 1.3 1.3v19.4c0 0.5626-0.73735 1.3-1.3 1.3h-19.4c-0.56265 0-1.3-0.7374-1.3-1.3v-19.4c0-0.5626 0.73735-1.3 1.3-1.3z" color="#000000" fill="#979797" style="block-progression:tb;text-indent:0;text-transform:none"/>
</svg>

<?xml version="1.0" encoding="UTF-8" standalone="no"?>
<!-- Created with Inkscape (http://www.inkscape.org/) -->

<svg
   xmlns:dc="http://purl.org/dc/elements/1.1/"
   xmlns:cc="http://creativecommons.org/ns#"
   xmlns:rdf="http://www.w3.org/1999/02/22-rdf-syntax-ns#"
   xmlns:svg="http://www.w3.org/2000/svg"
   xmlns="http://www.w3.org/2000/svg"
   xmlns:xlink="http://www.w3.org/1999/xlink"
   version="1.1"
   width="26"
   height="26"
   id="svg25537">
  <defs
     id="defs25539">
    <linearGradient
       x1="15"
       y1="1049.3622"
       x2="15"
       y2="1027.3622"
       id="linearGradient25229"
       xlink:href="#linearGradient3801-6-9-0"
       gradientUnits="userSpaceOnUse"
       gradientTransform="translate(0,-1026.3622)" />
    <linearGradient
       id="linearGradient3801-6-9-0">
      <stop
         id="stop3803-7-1-9"
         style="stop-color:#aa1112;stop-opacity:1"
         offset="0" />
      <stop
         id="stop4329-4"
         style="stop-color:#b60607;stop-opacity:1"
         offset="0.28" />
      <stop
         id="stop3805-5-28-5"
         style="stop-color:#760607;stop-opacity:1"
         offset="1" />
    </linearGradient>
    <linearGradient
       x1="15"
       y1="1049.3622"
       x2="15"
       y2="1027.3622"
       id="linearGradient4370"
       xlink:href="#linearGradient3801-6-9-0-1"
       gradientUnits="userSpaceOnUse"
       gradientTransform="translate(0,-1026.3622)" />
    <linearGradient
       id="linearGradient3801-6-9-0-1">
      <stop
         id="stop3803-7-1-9-5"
         style="stop-color:#aa1112;stop-opacity:1"
         offset="0" />
      <stop
         id="stop4329-4-9"
         style="stop-color:#b60607;stop-opacity:1"
         offset="0.28" />
      <stop
         id="stop3805-5-28-5-7"
         style="stop-color:#760607;stop-opacity:1"
         offset="1" />
    </linearGradient>
    <linearGradient
       x1="13"
       y1="1027.3622"
       x2="13"
       y2="1049.3622"
       id="linearGradient3807-3"
       xlink:href="#linearGradient3801-6"
       gradientUnits="userSpaceOnUse"
       gradientTransform="translate(0,-1026.3622)" />
    <linearGradient
       id="linearGradient3801-6">
      <stop
         id="stop3803-7"
         style="stop-color:#242424;stop-opacity:1"
         offset="0" />
      <stop
         id="stop3805-5"
         style="stop-color:#101010;stop-opacity:1"
         offset="1" />
    </linearGradient>
    <linearGradient
       x1="15"
       y1="1049.3622"
       x2="15"
       y2="1027.3622"
       id="linearGradient4370-6"
       xlink:href="#linearGradient3801-6-9-0-7"
       gradientUnits="userSpaceOnUse"
       gradientTransform="translate(0,-1026.3622)" />
    <linearGradient
       id="linearGradient3801-6-9-0-7">
      <stop
         id="stop3803-7-1-9-3"
         style="stop-color:#aa1112;stop-opacity:1"
         offset="0" />
      <stop
         id="stop4329-4-6"
         style="stop-color:#b60607;stop-opacity:1"
         offset="0.28" />
      <stop
         id="stop3805-5-28-5-5"
         style="stop-color:#760607;stop-opacity:1"
         offset="1" />
    </linearGradient>
    <linearGradient
       x1="15"
       y1="1049.3622"
       x2="15"
       y2="1027.3622"
       id="linearGradient14755"
       xlink:href="#linearGradient3801-6-9-0-6"
       gradientUnits="userSpaceOnUse"
       gradientTransform="translate(0,-1026.3622)" />
    <linearGradient
       id="linearGradient3801-6-9-0-6">
      <stop
         id="stop3803-7-1-9-39"
         style="stop-color:#aa1112;stop-opacity:1"
         offset="0" />
      <stop
         id="stop4329-4-4"
         style="stop-color:#b60607;stop-opacity:1"
         offset="0.28" />
      <stop
         id="stop3805-5-28-5-8"
         style="stop-color:#760607;stop-opacity:1"
         offset="1" />
    </linearGradient>
    <linearGradient
       x1="15"
       y1="1049.3622"
       x2="15"
       y2="1027.3622"
       id="linearGradient27652"
       xlink:href="#linearGradient3801-6-9-0-6"
       gradientUnits="userSpaceOnUse" />
    <linearGradient
       x1="15"
       y1="1049.3622"
       x2="15"
       y2="1027.3622"
       id="linearGradient6840"
       xlink:href="#linearGradient3801-6-9-0-6"
       gradientUnits="userSpaceOnUse"
       gradientTransform="translate(0,-1026.3622)" />
  </defs>
  <metadata
     id="metadata25542">
    <rdf:RDF>
      <cc:Work
         rdf:about="">
        <dc:format>image/svg+xml</dc:format>
        <dc:type
           rdf:resource="http://purl.org/dc/dcmitype/StillImage" />
        <dc:title></dc:title>
      </cc:Work>
    </rdf:RDF>
  </metadata>
  <rect
     width="23"
     height="23.000017"
     rx="1.5"
     ry="1.5"
     x="0.5"
     y="0.49998263"
     id="rect3029-96-4"
     style="color:#000000;fill:url(#linearGradient6840);fill-opacity:1;fill-rule:nonzero;stroke:none;stroke-width:1;marker:none;visibility:visible;display:inline;overflow:visible;enable-background:accumulate" />
  <path
     d="m 16,7 -5,0 0,13 1,0 0,-7 4,0 0,-6"
     id="path9817-6-7"
     style="fill:#320202;fill-opacity:1;stroke:none;display:inline" />
  <path
     d="m 15,6 -5,0 0,13 1,0 0,-7 4,0 0,-6"
     id="path9817-6"
     style="fill:#8d8f90;fill-opacity:1;stroke:none;display:inline" />
  <path
     d="M 2,0 C 0.90064862,0 0,0.9006 0,2 l 0,20 c 0,1.0994 0.90064862,2 2,2 l 20,0 c 1.099351,0 2,-0.9006 2,-2 L 24,2 C 24,0.9006 23.099351,0 22,0 z M 2.3,1 21.7,1 C 22.262649,1 23,1.7374 23,2.3 l 0,19.4 C 23,22.2626 22.262649,23 21.7,23 L 2.3,23 C 1.7373514,23 1,22.2626 1,21.7 L 1,2.3 C 1,1.7374 1.7373514,1 2.3,1 z"
     id="rect3029-96-9"
     style="font-size:medium;font-style:normal;font-variant:normal;font-weight:normal;font-stretch:normal;text-indent:0;text-align:start;text-decoration:none;line-height:normal;letter-spacing:normal;word-spacing:normal;text-transform:none;direction:ltr;block-progression:tb;writing-mode:lr-tb;text-anchor:start;baseline-shift:baseline;color:#000000;fill:#979797;fill-opacity:1;fill-rule:nonzero;stroke:none;stroke-width:1;marker:none;visibility:visible;display:inline;overflow:visible;enable-background:accumulate;font-family:Sans;-inkscape-font-specification:Sans" />
</svg>
